tools/download-figma-icons/icons/outlined-large/gas-plant.svg

<svg width="64" height="64" viewBox="0 0 64 64" fill="none" xmlns="http://www.w3.org/2000/svg">
<path fill-rule="evenodd" clip-rule="evenodd" d="M18.5 55H45.5C46.879 55 48 53.879 48 52.5V50.5H16V52.5C16 53.879 17.121 55 18.5 55ZM41.535 61H22.465V58H41.535V61ZM48 47.5H16V22H48V47.5ZM21.5 14.5H18.5C17.121 14.5 16 15.621 16 17V19H48V17C48 15.621 46.879 14.5 45.5 14.5H42.5H34.92H28.687H21.5ZM33.42 11.5H30.187V9H33.42V11.5ZM24.5 3C23.673 3 23 3.673 23 4.5V11.5H27.187V7.5C27.187 6.672 27.858 6 28.687 6H34.92C35.748 6 36.42 6.672 36.42 7.5V11.5H41V4.5C41 3.673 40.327 3 39.5 3H24.5ZM44 11.5H45.5C48.532 11.5 51 13.968 51 17V52.5C51 55.532 48.532 58 45.5 58H44.535V61.884C44.535 63.051 43.585 64 42.418 64H21.581C20.414 64 19.465 63.051 19.465 61.884V58H18.5C15.468 58 13 55.532 13 52.5V17C13 13.968 15.468 11.5 18.5 11.5H20V4.5C20 2.019 22.019 0 24.5 0H39.5C41.981 0 44 2.019 44 4.5V11.5ZM32.2971 30.409C29.9671 30.783 27.1271 31.639 26.8281 33.583C26.5071 35.675 27.2991 36.713 28.0141 37.216C28.0192 37.22 28.025 37.223 28.0307 37.226C28.035 37.2282 28.0392 37.2304 28.0431 37.233C28.0456 37.2345 28.0476 37.2365 28.0496 37.2385C28.0516 37.2405 28.0536 37.2425 28.0561 37.244C28.4791 37.532 28.8691 37.635 28.9711 37.657C28.9805 37.6591 28.9898 37.6612 28.9992 37.6634C29.0078 37.6654 29.0165 37.6676 29.0251 37.67C29.4471 37.777 33.1331 38.59 34.9761 34.99C36.0321 32.927 36.3951 30.86 36.5051 29.382C34.9591 29.923 33.3351 30.242 32.2971 30.409ZM24.4281 42.79C24.3761 42.574 24.0311 40.866 25.2121 38.674C24.1801 37.479 23.4701 35.687 23.8631 33.128C24.1801 31.069 25.8171 28.413 31.8201 27.447C34.1381 27.074 36.0981 26.469 37.1971 25.785C37.6331 25.516 38.1721 25.485 38.6341 25.705C39.0951 25.924 39.4121 26.363 39.4771 26.869C39.5021 27.062 40.0551 31.653 37.6461 36.357C35.8451 39.876 32.6841 40.817 30.2931 40.818C29.5191 40.818 28.8271 40.72 28.2861 40.578C28.1031 40.536 27.9051 40.473 27.7011 40.398C27.2397 41.4095 27.3473 42.0902 27.354 42.1326L27.3541 42.133C27.4971 42.932 26.9831 43.722 26.1881 43.888C26.0821 43.909 25.9751 43.92 25.8711 43.92C25.1961 43.92 24.5911 43.474 24.4281 42.79Z" fill="black"/>
</svg>

<svg xmlns="http://www.w3.org/2000/svg" width="64" height="64" fill="none" viewBox="0 0 64 64"><path fill="currentColor" fill-rule="evenodd" d="M18.5 55h27c1.379 0 2.5-1.121 2.5-2.5v-2H16v2c0 1.379 1.121 2.5 2.5 2.5m23.035 6h-19.07v-3h19.07zM48 47.5H16V22h32zm-26.5-33h-3A2.5 2.5 0 0 0 16 17v2h32v-2c0-1.379-1.121-2.5-2.5-2.5zm11.92-3h-3.233V9h3.233zM24.5 3c-.827 0-1.5.673-1.5 1.5v7h4.187v-4a1.5 1.5 0 0 1 1.5-1.5h6.233a1.5 1.5 0 0 1 1.5 1.5v4H41v-7c0-.827-.673-1.5-1.5-1.5zM44 11.5h1.5c3.032 0 5.5 2.468 5.5 5.5v35.5c0 3.032-2.468 5.5-5.5 5.5h-.965v3.884c0 1.167-.95 2.116-2.117 2.116H21.581a2.12 2.12 0 0 1-2.116-2.116V58H18.5a5.507 5.507 0 0 1-5.5-5.5V17c0-3.032 2.468-5.5 5.5-5.5H20v-7C20 2.019 22.019 0 24.5 0h15C41.981 0 44 2.019 44 4.5zM32.297 30.409c-2.33.374-5.17 1.23-5.469 3.174-.32 2.092.471 3.13 1.186 3.633l.017.01.012.007.007.006.006.005a2.8 2.8 0 0 0 .97.426c.421.107 4.107.92 5.95-2.68 1.056-2.063 1.42-4.13 1.53-5.608-1.547.541-3.17.86-4.209 1.027M24.428 42.79c-.052-.216-.397-1.924.784-4.116-1.032-1.195-1.742-2.987-1.349-5.546.317-2.059 1.954-4.715 7.957-5.681 2.318-.373 4.278-.978 5.377-1.662a1.502 1.502 0 0 1 2.28 1.084c.025.193.578 4.784-1.83 9.488-1.802 3.519-4.963 4.46-7.354 4.461a8 8 0 0 1-2.007-.24 5 5 0 0 1-.585-.18c-.461 1.011-.354 1.692-.347 1.735.143.799-.37 1.589-1.166 1.755a1.6 1.6 0 0 1-.317.032 1.47 1.47 0 0 1-1.443-1.13" clip-rule="evenodd"/></svg>
